packages/icons/raw/imported/SportBombay.svg

<svg width="32" height="32" viewBox="0 0 32 32" fill="none" xmlns="http://www.w3.org/2000/svg">
<path d="M18.5559 12.0779L18.1169 11.8386L18.5559 12.0779ZM15.1893 13.5C14.9132 13.5 14.6893 13.7239 14.6893 14C14.6893 14.2761 14.9132 14.5 15.1893 14.5V13.5ZM13.4579 6.84239C13.2029 6.94839 13.0821 7.24103 13.1881 7.49602C13.2941 7.75101 13.5867 7.87179 13.8417 7.76579L13.4579 6.84239ZM12.7605 10.6646C12.9592 10.8564 13.2757 10.8507 13.4675 10.652C13.6592 10.4532 13.6535 10.1367 13.4548 9.94497L12.7605 10.6646ZM12.5398 8.90792L13.0392 8.93195L12.5398 8.90792ZM13.8859 7.74777C14.1371 7.63308 14.2478 7.33647 14.1331 7.08527C14.0184 6.83407 13.7218 6.72341 13.4706 6.8381L13.8859 7.74777ZM13.4158 18.7924C13.4158 18.5163 13.1919 18.2924 12.9158 18.2924C12.6397 18.2924 12.4158 18.5163 12.4158 18.7924H13.4158ZM17.8464 17.159C17.6795 16.939 17.3658 16.896 17.1458 17.0629C16.9259 17.2299 16.8829 17.5435 17.0498 17.7635L17.8464 17.159ZM22.5 18.25C22.5 21.6674 19.5039 24.5 15.7282 24.5V25.5C19.9847 25.5 23.5 22.2885 23.5 18.25H22.5ZM15.7282 24.5C13.4197 24.5 11.3915 23.4351 10.172 21.8233L9.37457 22.4267C10.786 24.2922 13.1113 25.5 15.7282 25.5V24.5ZM18.3736 12.4949C20.8171 13.4532 22.5 15.6831 22.5 18.25H23.5C23.5 15.2231 21.5178 12.6539 18.7387 11.564L18.3736 12.4949ZM15.1893 7.5C17.0313 7.5 18.4599 8.87755 18.4599 10.5H19.4599C19.4599 8.25645 17.5122 6.5 15.1893 6.5V7.5ZM18.4599 10.5C18.4599 10.9808 18.3369 11.4349 18.1169 11.8386L18.9949 12.3171C19.2917 11.7726 19.4599 11.1546 19.4599 10.5H18.4599ZM18.1169 11.8386C17.586 12.8126 16.4837 13.5 15.1893 13.5V14.5C16.8368 14.5 18.2828 13.6238 18.9949 12.3171L18.1169 11.8386ZM13.8417 7.76579C14.2514 7.59547 14.7073 7.5 15.1893 7.5V6.5C14.5746 6.5 13.9883 6.62188 13.4579 6.84239L13.8417 7.76579ZM9.5 19.7498C9.5 17.7131 11.2903 15.9998 13.5785 15.9998V14.9998C10.8094 14.9998 8.5 17.092 8.5 19.7498H9.5ZM10.3614 22.0544C9.81884 21.4153 9.5 20.6154 9.5 19.7498H8.5C8.5 20.8685 8.91375 21.8943 9.59903 22.7016L10.3614 22.0544ZM13.5785 15.9998C15.2512 15.9998 16.67 16.9227 17.3017 18.2168L18.2004 17.7782C17.3939 16.1262 15.6171 14.9998 13.5785 14.9998V15.9998ZM13.4548 9.94497C13.1757 9.67576 13.0208 9.31556 13.0392 8.93195L12.0404 8.8839C12.0069 9.57919 12.2919 10.2125 12.7605 10.6646L13.4548 9.94497ZM13.0392 8.93195C13.0636 8.4251 13.3893 7.97453 13.8859 7.74777L13.4706 6.8381C12.6745 7.2016 12.0848 7.96042 12.0404 8.8839L13.0392 8.93195ZM17.4016 18.7924C17.4016 19.7598 16.5451 20.6064 15.4087 20.6064V21.6064C17.0259 21.6064 18.4016 20.3809 18.4016 18.7924H17.4016ZM15.4087 20.6064C14.2723 20.6064 13.4158 19.7598 13.4158 18.7924H12.4158C12.4158 20.3809 13.7915 21.6064 15.4087 21.6064V20.6064ZM17.0498 17.7635C17.2736 18.0584 17.4016 18.4126 17.4016 18.7924H18.4016C18.4016 18.1812 18.194 17.617 17.8464 17.159L17.0498 17.7635Z" fill="black"/>
</svg>

<svg width="32" height="32" fill="none" xmlns="http://www.w3.org/2000/svg"><path d="m18.556 12.078-.44-.24.44.24ZM15.189 13.5a.5.5 0 0 0 0 1v-1Zm-1.731-6.658a.5.5 0 0 0 .384.924l-.384-.924Zm-.697 3.823a.5.5 0 1 0 .694-.72l-.694.72Zm-.221-1.757.5.024-.5-.024Zm1.346-1.16a.5.5 0 1 0-.415-.91l.415.91Zm-.47 11.044a.5.5 0 0 0-1 0h1Zm4.43-1.633a.5.5 0 1 0-.796.605l.796-.605ZM22.5 18.25c0 3.417-2.996 6.25-6.772 6.25v1c4.257 0 7.772-3.212 7.772-7.25h-1Zm-6.772 6.25c-2.308 0-4.336-1.065-5.556-2.677l-.797.604c1.411 1.865 3.736 3.073 6.353 3.073v-1Zm2.646-12.005c2.443.958 4.126 3.188 4.126 5.755h1c0-3.027-1.982-5.596-4.761-6.686l-.365.93ZM15.189 7.5c1.842 0 3.27 1.378 3.27 3h1c0-2.244-1.947-4-4.27-4v1Zm3.27 3c0 .48-.122.935-.342 1.339l.878.478a3.783 3.783 0 0 0 .465-1.817h-1Zm-.342 1.339c-.531.974-1.633 1.661-2.928 1.661v1c1.648 0 3.094-.876 3.806-2.183l-.878-.478Zm-4.275-4.073c.41-.17.865-.266 1.347-.266v-1c-.614 0-1.2.122-1.731.342l.384.924ZM9.5 19.75c0-2.037 1.79-3.75 4.079-3.75v-1c-2.77 0-5.079 2.092-5.079 4.75h1Zm.861 2.304A3.544 3.544 0 0 1 9.5 19.75h-1c0 1.119.414 2.144 1.099 2.952l.762-.648ZM13.578 16c1.673 0 3.092.923 3.724 2.217l.898-.439C17.394 16.126 15.617 15 13.58 15v1Zm-.123-6.055c-.28-.27-.434-.63-.416-1.013l-.999-.048a2.313 2.313 0 0 0 .72 1.78l.695-.719Zm-.416-1.013c.025-.507.35-.957.847-1.184l-.415-.91c-.796.364-1.386 1.122-1.43 2.046l.998.048Zm4.363 9.86c0 .968-.857 1.814-1.993 1.814v1c1.617 0 2.993-1.225 2.993-2.814h-1Zm-1.993 1.814c-1.137 0-1.993-.846-1.993-1.814h-1c0 1.589 1.375 2.814 2.993 2.814v-1Zm1.64-2.843c.225.295.353.65.353 1.03h1c0-.612-.208-1.176-.556-1.634l-.796.605Z" fill="#000"/></svg>
